gama.ui.shared/icons_svg/dark/viewers/add.column.svg

<svg height="25" viewBox="-886.483 -2925.879 25 25" width="25" xmlns="http://www.w3.org/2000/svg"><g fill="none"><path d="m-882.1428-2925.379h16.32c2.1208 0 3.84 1.719 3.84 3.84v16.32c0 2.1207-1.7192 3.84-3.84 3.84h-16.32c-2.1207 0-3.84-1.7193-3.84-3.84v-16.32c0-2.121 1.7193-3.84 3.84-3.84z" fill="#666"/><path d="m-882.1428-2925.379h16.32c2.1208 0 3.84 1.719 3.84 3.84v16.32c0 2.1207-1.7192 3.84-3.84 3.84h-16.32c-2.1207 0-3.84-1.7193-3.84-3.84v-16.32c0-2.121 1.7193-3.84 3.84-3.84z" stroke="#fff" stroke-linecap="round" stroke-linejoin="round" stroke-width=".25"/><path d="m-870.9828-2918.879v11c0 .83.67 1.5 1.5 1.5h1c.83 0 1.5-.67 1.5-1.5v-11c0-.83-.67-1.5-1.5-1.5h-1c-.83 0-1.5.67-1.5 1.5zm-1 0c0-1.38 1.12-2.5 2.5-2.5h1c1.38 0 2.5 1.12 2.5 2.5v11c0 1.38-1.12 2.5-2.5 2.5h-1c-1.38 0-2.5-1.12-2.5-2.5z" fill="#e3e6e1"/><path d="m-879.0594-2913.684 3.5102.0043c.1693 0 .3006.1312.3006.3007 0 .1693-.1313.3005-.3006.3005h-3.5144v3.5145c0 .1693-.1313.3005-.3006.3005-.1694 0-.3007-.1312-.3007-.3005v-3.5145l-3.5058-.0085c-.1694 0-.3007-.1312-.3007-.3006s.1313-.3006.3007-.3006h3.5143v-3.5058c-.0042-.1652.1313-.3007.2964-.2965.1651-.0042.3006.1313.2964.2965v3.5143z" fill="#8eed62"/><path d="m-879.0594-2913.684 3.5102.0043c.1693 0 .3006.1312.3006.3007 0 .1693-.1313.3005-.3006.3005h-3.5144v3.5145c0 .1693-.1313.3005-.3006.3005-.1694 0-.3007-.1312-.3007-.3005v-3.5145l-3.5058-.0085c-.1694 0-.3007-.1312-.3007-.3006s.1313-.3006.3007-.3006h3.5143v-3.5058c-.0042-.1652.1313-.3007.2964-.2965.1651-.0042.3006.1313.2964.2965v3.5143z" stroke="#518738" stroke-linejoin="round" stroke-width=".25"/></g></svg>

<?xml version="1.0" encoding="UTF-8" standalone="no"?>
<!DOCTYPE svg PUBLIC "-//W3C//DTD SVG 1.1//EN" "http://www.w3.org/Graphics/SVG/1.1/DTD/svg11.dtd">
<svg xmlns="http://www.w3.org/2000/svg" xmlns:xl="http://www.w3.org/1999/xlink" version="1.1" xmlns:dc="http://purl.org/dc/elements/1.1/" viewBox="-886.4828 -2925.879 25 25" width="25" height="25">
  <defs/>
  <g id="SOURCES" stroke-opacity="1" fill="none" stroke="none" fill-opacity="1" stroke-dasharray="none">
    <title>SOURCES</title>
    <g id="SOURCES_Dark">
      <title>Dark</title>
      <g id="Graphic_10988">
        <path d="M -882.1428 -2925.379 L -865.8228 -2925.379 C -863.702 -2925.379 -861.9828 -2923.66 -861.9828 -2921.539 L -861.9828 -2905.219 C -861.9828 -2903.0983 -863.702 -2901.379 -865.8228 -2901.379 L -882.1428 -2901.379 C -884.2635 -2901.379 -885.9828 -2903.0983 -885.9828 -2905.219 L -885.9828 -2921.539 C -885.9828 -2923.66 -884.2635 -2925.379 -882.1428 -2925.379 Z" fill="#666"/>
        <path d="M -882.1428 -2925.379 L -865.8228 -2925.379 C -863.702 -2925.379 -861.9828 -2923.66 -861.9828 -2921.539 L -861.9828 -2905.219 C -861.9828 -2903.0983 -863.702 -2901.379 -865.8228 -2901.379 L -882.1428 -2901.379 C -884.2635 -2901.379 -885.9828 -2903.0983 -885.9828 -2905.219 L -885.9828 -2921.539 C -885.9828 -2923.66 -884.2635 -2925.379 -882.1428 -2925.379 Z" stroke="white" stroke-linecap="round" stroke-linejoin="round" stroke-width=".25"/>
      </g>
      <g id="Graphic_10987">
        <path d="M -870.9828 -2918.879 L -870.9828 -2907.879 C -870.9828 -2907.049 -870.3128 -2906.379 -869.4828 -2906.379 L -868.4828 -2906.379 C -867.6528 -2906.379 -866.9828 -2907.049 -866.9828 -2907.879 L -866.9828 -2918.879 C -866.9828 -2919.709 -867.6528 -2920.379 -868.4828 -2920.379 L -869.4828 -2920.379 C -870.3128 -2920.379 -870.9828 -2919.709 -870.9828 -2918.879 Z M -871.9828 -2918.879 C -871.9828 -2920.259 -870.8628 -2921.379 -869.4828 -2921.379 L -868.4828 -2921.379 C -867.1028 -2921.379 -865.9828 -2920.259 -865.9828 -2918.879 L -865.9828 -2907.879 C -865.9828 -2906.499 -867.1028 -2905.379 -868.4828 -2905.379 L -869.4828 -2905.379 C -870.8628 -2905.379 -871.9828 -2906.499 -871.9828 -2907.879 Z" fill="#e3e6e1"/>
      </g>
      <g id="Graphic_10985">
        <path d="M -879.0594 -2913.684 L -875.5492 -2913.6797 C -875.3799 -2913.6797 -875.2486 -2913.5485 -875.2486 -2913.379 C -875.2486 -2913.2097 -875.3799 -2913.0785 -875.5492 -2913.0785 L -879.0636 -2913.0785 L -879.0636 -2909.564 C -879.0636 -2909.3947 -879.1949 -2909.2635 -879.3642 -2909.2635 C -879.5336 -2909.2635 -879.6649 -2909.3947 -879.6649 -2909.564 L -879.6649 -2913.0785 L -883.1707 -2913.087 C -883.3401 -2913.087 -883.4714 -2913.2182 -883.4714 -2913.3876 C -883.4714 -2913.557 -883.3401 -2913.6882 -883.1707 -2913.6882 L -879.6564 -2913.6882 L -879.6564 -2917.194 C -879.6606 -2917.3592 -879.5251 -2917.4947 -879.36 -2917.4905 C -879.1949 -2917.4947 -879.0594 -2917.3592 -879.0636 -2917.194 L -879.0636 -2913.6797 Z" fill="#8eed62"/>
        <path d="M -879.0594 -2913.684 L -875.5492 -2913.6797 C -875.3799 -2913.6797 -875.2486 -2913.5485 -875.2486 -2913.379 C -875.2486 -2913.2097 -875.3799 -2913.0785 -875.5492 -2913.0785 L -879.0636 -2913.0785 L -879.0636 -2909.564 C -879.0636 -2909.3947 -879.1949 -2909.2635 -879.3642 -2909.2635 C -879.5336 -2909.2635 -879.6649 -2909.3947 -879.6649 -2909.564 L -879.6649 -2913.0785 L -883.1707 -2913.087 C -883.3401 -2913.087 -883.4714 -2913.2182 -883.4714 -2913.3876 C -883.4714 -2913.557 -883.3401 -2913.6882 -883.1707 -2913.6882 L -879.6564 -2913.6882 L -879.6564 -2917.194 C -879.6606 -2917.3592 -879.5251 -2917.4947 -879.36 -2917.4905 C -879.1949 -2917.4947 -879.0594 -2917.3592 -879.0636 -2917.194 L -879.0636 -2913.6797 Z" stroke="#518738" stroke-linecap="butt" stroke-linejoin="round" stroke-width=".25"/>
      </g>
    </g>
  </g>
</svg>
